!!!COM: Ce/cile Chaminade
!!!CNT: Francais
!!!TXO: Francais
!!!OTL: "Colette"
!!!LYR: Barbier, (Paul) Jules
!!!ENC: Amanda Harris
!!!YOR: Album of Songs, Volume 1
!!!YOR: Da Capo Press
!!!ODT: 1891/
!!NB: Vocal melody and text encoded
**kern	**silbe
*clefG2	*
*k[b-e-a-]	*
*M4/4	*
*MM[allegro]	*
=5	=5
{8b-	{A-
8ee-	-vril
8b-	a
8a-	par-
2b-	-le/,
=6	=6
8g	Co-
8b-	-let-
8g	-te est
8f	re^-
2g	-veu-
=7	=7
8c	-se! El-
8a-	-le a
8c	de/-
8a-	-lais-
4c	-se/
4a-	les
=8	=8
4c	jeux
8g	d'au-
8g	-tre-
4.e-}	-fois!}
8r	.
=9	=9
{8g	{Mais
8f	quand
8f	des
8an	oi-
8an	-seaux
8g	|
8g	la
8b-	|
=10	=10
8b-	trou-
8an	-pe
8an	a-
8cc	-mou-
8cc	-reu-
8b-	|
8an	|
8g	-se
=11	=11
8f	Chan-
8b-	-te
8f	du
8e-	prin-
4f	-temps
8d	les
8d	di-
=12	=12
4e-	-vins
8d	ex-
8c	|
2B-}	-ploits,}
=13	=13
{8g	{El-
8g	-le e/-
8g	-cou-
8g	-te, heu-
4dd	-reu-
4d	-se,
=14	=14
8b-	Au
8b-	fond
8b-	des
8b-	grands
2ee-}	bois!}
=15	=15
{8b-	{Tout
8ee-	par-
8b-	-le a\
8a-	son
2b-	coeur,
=16	=16
8g	ru-
8b-	-meurs
8g	bo-
8f	-ca-
4g	-ge\-
4g	res,
=17	=17
8c	Par-
8a-	-fums
8c	ca-
8a-	-res-
4c	-sants
8a-	ou
8a-	ray-
=18	=18
4c	-ons
4g	joy-
4.e-}	-eux!}
8r	.
=19	=19
{8g	{Ve/-
8f	-nus
8f	ou
8an	Phoe-
8an	-be/
8g	|
8g	d'a-
8b-	|
=20	=20
8b-	-mour
8an	|
8an	mes-
8cc	-sa-
8cc	-ge\-
8b-	|
8an	|
8g	-re,
=21	=21
8f	Lui
8b-	sem-
8f	-blent
8e-	des
4f	yeux
4d	fix-
=22	=22
4e-	-e/s
8d	sur
8c	ses
2B-}	yeux,}
=23	=23
{8g	{Les
8g	bri-
8g	-ses
8g	le/-
4dd	-ge\-
4d	-res
=24	=24
8b-	Un
8b-	sou-
8b-	-pir
8b-	des
[2ee-	cieux!
=25	=25
4ee-]}	|}
4r	.
2r	.
=27	=27
{8g	{Le
8b-	gen-
8g	-til
8f#	Co-
2g	-lin,
=28	=28
8g	de-
8an	-puis
8b	sa
8cc	nais-
4dd	-san-
4ee-	-ce,
=29	=29
8dd	A-
8dd	-vait
8cc	ses
8cc	bai-
4b-	-sers
4an	d'en-
=30	=30
4f#	-fant
8g	cha-
8g	-que
2an}	jour;}
=31	=31
{8b-	{Tous
8b-	deux
8cc	i-
8cc	-gno-
2fn	-raient
=32	=32
8b-	l'e/-
8b-	-tran-
8cc	-ge
8cc	puis-
4ee	-san-
4dd	-ce
=33	=33
8cc	D'un
8cc	bai-
8dd	-ser
8dd	qu'on
4b-	donne
4cc	et
=34	=34
4b-	prend
8an	tour
8an	a\
4.b-}	tour!}
8r	.
=35	=35
{8b-	{Mais
8b-	leur
8b-	in-
8b-	-no-
4cc	-cen-
4f	-ce
=36	=36
8b-	Leur
8b-	ap-
8cc	-prit
8cc	l'a-
2dd}	-mour!}
=37	=37
{8b-	{Co-
8ee-	-lin,
8b-	un
8a	ma-
2b-	tin,
=38	=38
8g	la
8b-	vo-
8g	-yant
8f	pa-
4g	-rai^-
4g	-tre,
=39	=39
8c	Lui
8a-	vou-
8c	-lut
8a-	au
4c	front
4a-	ses
=40	=40
4c	le\-
8g	-vres
8g	po-
4.e-}	-ser,}
8r	.
=41	=41
{8g	{El-
8f	-le eut
8f	un
8an	ca-
8an	-pri-
8g	-ce
8g	ou\
8b-	l'a-
=42	=42
8b-	-mour
8an	|
8an	put
8cc	|
8cc	nai^-
8b-	|
8an	|
8g	-tre
=43	=43
8f	Et
8b-	se
8f	fit
8e-	un
4f	jeu
4d	de
=44	=44
4e-	s'y
8d	re-
8c	-fu-
2B-}	-ser,}
=45	=45
{8g	{Lors
8g	il
8g	put
8g	con-
4dd	-nai^-
4d	-tre
=46	=46
8b-	Le
8b-	prix
8b-	d'un
8b-	bai-
[2ee-	-ser.
=47	=47
2ee-]}	|}
2r	.
*-	*-
